src/assets/mh-icons/Charm_Rank_01.svg

<?xml version="1.0" encoding="UTF-8" standalone="no"?>
<svg
   width="100%"
   height="100%"
   viewBox="0 0 64 64"
   version="1.1"
   xml:space="preserve"
   style="fill-rule:evenodd;clip-rule:evenodd;stroke-linejoin:round;stroke-miterlimit:2;"
   id="svg30860"
   sodipodi:docname="Charm_Rank_01.svg"
   inkscape:version="1.2.2 (732a01da63, 2022-12-09)"
   xmlns:inkscape="http://www.inkscape.org/namespaces/inkscape"
   xmlns:sodipodi="http://sodipodi.sourceforge.net/DTD/sodipodi-0.dtd"
   xmlns="http://www.w3.org/2000/svg"
   xmlns:svg="http://www.w3.org/2000/svg"><defs
   id="defs30864">
        
    
            
            
            
            
        
                
            
                
            
                
            
                
            </defs><sodipodi:namedview
   id="namedview30862"
   pagecolor="#505050"
   bordercolor="#eeeeee"
   borderopacity="1"
   inkscape:showpageshadow="0"
   inkscape:pageopacity="0"
   inkscape:pagecheckerboard="0"
   inkscape:deskcolor="#505050"
   showgrid="false"
   inkscape:zoom="16.046875"
   inkscape:cx="32.062317"
   inkscape:cy="31.968841"
   inkscape:window-width="3440"
   inkscape:window-height="1377"
   inkscape:window-x="-8"
   inkscape:window-y="-8"
   inkscape:window-maximized="1"
   inkscape:current-layer="svg30860" />
    <path
   id="background"
   style="fill-opacity:0.76;fill:none;stroke:#000000;stroke-opacity:1;stroke-width:4;stroke-dasharray:none"
   d="M 28 7 C 27.725523 7 27.477632 7.1117724 27.296875 7.2910156 C 26.391015 7.6528011 25.387835 8.3129291 24.726562 9.0429688 C 24.308595 9.1628146 24 9.5436837 24 10 L 24 10.5 L 24 11 L 24 16 L 24 17 L 24 20 L 23 20 C 22.448001 20 22 20.448001 22 21 L 22 24 L 19.400391 26 L 19.378906 26 C 16.698909 28.293998 13 31.700004 13 35.5 C 13 35.66204 13.003908 35.823299 13.009766 35.984375 L 13 36 L 13.080078 37.919922 C 13.624078 43.150917 19.081006 47 25.5 47 C 31.918994 47 37.375922 43.150917 37.919922 37.919922 L 38 36 L 37.990234 35.984375 C 37.996092 35.823299 38 35.66204 38 35.5 C 38 31.700004 34.301091 28.293998 31.621094 26 L 31.599609 26 L 29 24 L 29 21 C 29 20.448001 28.551999 20 28 20 L 27 20 L 27 17 L 27 16 L 27 15 L 29 15 L 30 15 L 33 15 L 34 15 L 38 15 L 39 15 L 43 15 L 44 15 C 44 15 45 15.000001 45 16 L 45 17 L 45 21 L 45 22 L 45 25 L 45 26 L 45 29 L 45 30 L 45 33 L 45 34 C 45 34.551999 45.448001 35 46 35 L 47 35 L 50 35 L 51 35 L 55 35 L 56 35 C 56.551999 35 57 34.551999 57 34 L 57 33 L 57 30 L 57 29 L 57 26 L 57 25 L 57 22 L 57 21 L 57 18 L 57 17 L 57 13 L 57 12 C 57 10.000002 55.499997 7 53 7 L 52 7 L 48 7 L 47 7 L 43 7 L 42 7 L 38 7 L 37 7 L 34 7 L 33 7 L 29 7 L 28.5 7 L 28 7 z M 9 50 L 15 56 L 15 50 L 9 50 z M 37 50 L 37 56 L 43 50 L 37 50 z M 26 52 L 21 57 L 31 57 L 26 52 z " />
<g
   transform="matrix(1,0,0,1,0,-320)"
   id="g31364">
        <g
   id="g31362"
   transform="matrix(1,0,0,1,0,-576)">
            <g
   id="g31348"
   transform="matrix(1,0,0,1,-320,0)">
                <path
   d="m 344,906.5 c 0,-1.5 3,-3.5 4.5,-3.5 H 373 c 2.5,0 4,3 4,5 v 22 l -1,1 h -10 l -1,-1 v -18 c 0,-1 -1,-1 -1,-1 h -17 v 5 l 2,4 2.6,2 6.4,10 -0.08,1.92 -12.42,9 -12.42,-9 -0.08,-1.92 6.4,-10 2.6,-2 2,-4 z m 3,0.5 c 0,-1 1,-1 1,-1 h 24.5 c 0,0 1.5,0 1.5,2.5 V 927 c 0,1 -1,1 -1,1 h -4 c -1,0 -1,-1 -1,-1 v -15 c 0,-4 -4,-4 -4,-4 h -16 c 0,0 -1,0 -1,-1 z"
   style="display:inline;fill:#1f1f1f;fill-opacity:1"
   id="base"
   inkscape:label="base" />
            </g>
            <g
   id="g31352"
   transform="matrix(1,0,0,1,-320,0)">
                <path
   d="M351,953L346,948L341,953L351,953ZM363,946L357,946L357,952L363,946ZM335,946L329,946L335,952L335,946Z"
   style="fill:rgb(204,204,204);"
   id="path31350" />
            </g>
            <g
   id="g31356"
   transform="matrix(1,0,0,1,-320,0)">
                <path
   d="M351.621,922C354.301,924.294 358,927.7 358,931.5C358,931.664 357.997,931.828 357.991,931.991L352,926L345.5,932L339,926L333.009,931.991C333.003,931.828 333,931.664 333,931.5C333,927.7 336.699,924.294 339.379,922L351.621,922ZM377,929C377,928.448 376.552,928 376,928L375,928C374.448,928 374,928.448 374,929L374,930C374,930.552 374.448,931 375,931L376,931C376.552,931 377,930.552 377,930L377,929ZM372,929C372,928.448 371.552,928 371,928L370,928C369.448,928 369,928.448 369,929L369,930C369,930.552 369.448,931 370,931L371,931C371.552,931 372,930.552 372,930L372,929ZM368,929C368,928.448 367.552,928 367,928L366,928C365.448,928 365,928.448 365,929L365,930C365,930.552 365.448,931 366,931L367,931C367.552,931 368,930.552 368,930L368,929ZM377,925C377,924.448 376.552,924 376,924L375,924C374.448,924 374,924.448 374,925L374,926C374,926.552 374.448,927 375,927L376,927C376.552,927 377,926.552 377,926L377,925ZM368,925C368,924.448 367.552,924 367,924L366,924C365.448,924 365,924.448 365,925L365,926C365,926.552 365.448,927 366,927L367,927C367.552,927 368,926.552 368,926L368,925ZM377,921C377,920.448 376.552,920 376,920L375,920C374.448,920 374,920.448 374,921L374,922C374,922.552 374.448,923 375,923L376,923C376.552,923 377,922.552 377,922L377,921ZM368,921C368,920.448 367.552,920 367,920L366,920C365.448,920 365,920.448 365,921L365,922C365,922.552 365.448,923 366,923L367,923C367.552,923 368,922.552 368,922L368,921ZM344,920L342,920L342,917C342,916.448 342.448,916 343,916L348,916C348.552,916 349,916.448 349,917L349,920L347,920L347,919C347,918.448 346.552,918 346,918L345,918C344.448,918 344,918.448 344,919L344,920ZM377,917C377,916.448 376.552,916 376,916L375,916C374.448,916 374,916.448 374,917L374,918C374,918.552 374.448,919 375,919L376,919C376.552,919 377,918.552 377,918L377,917ZM368,917C368,916.448 367.552,916 367,916L366,916C365.448,916 365,916.448 365,917L365,918C365,918.552 365.448,919 366,919L367,919C367.552,919 368,918.552 368,918L368,917ZM377,913C377,912.448 376.552,912 376,912L375,912C374.448,912 374,912.448 374,913L374,914C374,914.552 374.448,915 375,915L376,915C376.552,915 377,914.552 377,914L377,913ZM347,912C347,911.448 346.552,911 346,911L345,911C344.448,911 344,911.448 344,912L344,913C344,913.552 344.448,914 345,914L346,914C346.552,914 347,913.552 347,913L347,912ZM368,912C368,911.448 367.552,911 367,911L366,911C365.448,911 365,911.448 365,912L365,913C365,913.552 365.448,914 366,914L367,914C367.552,914 368,913.552 368,913L368,912ZM360,909C360,908.448 359.552,908 359,908L358,908C357.448,908 357,908.448 357,909L357,910C357,910.552 357.448,911 358,911L359,911C359.552,911 360,910.552 360,910L360,909ZM355,909C355,908.448 354.552,908 354,908L353,908C352.448,908 352,908.448 352,909L352,910C352,910.552 352.448,911 353,911L354,911C354.552,911 355,910.552 355,910L355,909ZM351,909C351,908.448 350.552,908 350,908L349,908C348.448,908 348,908.448 348,909L348,910C348,910.552 348.448,911 349,911L350,911C350.552,911 351,910.552 351,910L351,909ZM365,909C365,908.448 364.552,908 364,908L363,908C362.448,908 362,908.448 362,909L362,910C362,910.552 362.448,911 363,911L364,911C364.552,911 365,910.552 365,910L365,909ZM377,908C377,907.448 376.552,907 376,907L375,907C374.448,907 374,907.448 374,908L374,909C374,909.552 374.448,910 375,910L376,910C376.552,910 377,909.552 377,909L377,908ZM347,906C347,905.448 346.552,905 346,905L345,905C344.448,905 344,905.448 344,906L344,907C344,907.552 344.448,908 345,908L346,908C346.552,908 347,907.552 347,907L347,906ZM355,904C355,903.448 354.552,903 354,903L353,903C352.448,903 352,903.448 352,904L352,905C352,905.552 352.448,906 353,906L354,906C354.552,906 355,905.552 355,905L355,904ZM359,904C359,903.448 358.552,903 358,903L357,903C356.448,903 356,903.448 356,904L356,905C356,905.552 356.448,906 357,906L358,906C358.552,906 359,905.552 359,905L359,904ZM364,904C364,903.448 363.552,903 363,903L362,903C361.448,903 361,903.448 361,904L361,905C361,905.552 361.448,906 362,906L363,906C363.552,906 364,905.552 364,905L364,904ZM369,904C369,903.448 368.552,903 368,903L367,903C366.448,903 366,903.448 366,904L366,905C366,905.552 366.448,906 367,906L368,906C368.552,906 369,905.552 369,905L369,904ZM374,904C374,903.448 373.552,903 373,903L372,903C371.448,903 371,903.448 371,904L371,905C371,905.552 371.448,906 372,906L373,906C373.552,906 374,905.552 374,905L374,904ZM350,904C350,903.448 349.552,903 349,903L348,903C347.448,903 347,903.448 347,904L347,905C347,905.552 347.448,906 348,906L349,906C349.552,906 350,905.552 350,905L350,904Z"
   style="fill:rgb(136,136,136);"
   id="path31354" />
            </g>
            <g
   id="g31360"
   transform="matrix(1,0,0,1,-320,0)">
                <path
   d="M357.92,933.92C357.376,939.151 351.919,943 345.5,943C339.081,943 333.624,939.151 333.08,933.92L339,928L345.5,934L352,928L357.92,933.92ZM340.5,933C341.88,933 343,934.12 343,935.5C343,936.88 341.88,938 340.5,938C339.12,938 338,936.88 338,935.5C338,934.12 339.12,933 340.5,933Z"
   style="fill:rgb(190,190,190);"
   id="path31358" />
            </g>
        </g>
    </g></svg>

<?xml version="1.0" encoding="UTF-8" standalone="no"?>
<svg
   width="100%"
   height="100%"
   viewBox="0 0 64 64"
   version="1.1"
   xml:space="preserve"
   style="fill-rule:evenodd;clip-rule:evenodd;stroke-linejoin:round;stroke-miterlimit:2;"
   id="svg30860"
   sodipodi:docname="Charm_Rank_01.svg"
   inkscape:version="1.2.2 (732a01da63, 2022-12-09)"
   xmlns:inkscape="http://www.inkscape.org/namespaces/inkscape"
   xmlns:sodipodi="http://sodipodi.sourceforge.net/DTD/sodipodi-0.dtd"
   xmlns="http://www.w3.org/2000/svg"
   xmlns:svg="http://www.w3.org/2000/svg"><defs
   id="defs30864">
        
    
            
            
            
            
        
                
            
                
            
                
            
                
            </defs><sodipodi:namedview
   id="namedview30862"
   pagecolor="#505050"
   bordercolor="#eeeeee"
   borderopacity="1"
   inkscape:showpageshadow="0"
   inkscape:pageopacity="0"
   inkscape:pagecheckerboard="0"
   inkscape:deskcolor="#505050"
   showgrid="false"
   inkscape:zoom="16.046875"
   inkscape:cx="32"
   inkscape:cy="31.968841"
   inkscape:window-width="3440"
   inkscape:window-height="1377"
   inkscape:window-x="-8"
   inkscape:window-y="-8"
   inkscape:window-maximized="1"
   inkscape:current-layer="svg30860" />
    <path
   id="path30845"
   style="fill-opacity:0.76;fill:none;stroke:#000000;stroke-opacity:1;stroke-width:4;stroke-dasharray:none"
   d="M 28 7 C 27.725523 7 27.477632 7.1117724 27.296875 7.2910156 C 26.391015 7.6528011 25.387835 8.3129291 24.726562 9.0429688 C 24.308595 9.1628146 24 9.5436837 24 10 L 24 10.5 L 24 11 L 24 16 L 24 17 L 24 20 L 23 20 C 22.448001 20 22 20.448001 22 21 L 22 24 L 19.400391 26 L 19.378906 26 C 16.698909 28.293998 13 31.700004 13 35.5 C 13 35.66204 13.003908 35.823299 13.009766 35.984375 L 13 36 L 13.080078 37.919922 C 13.624078 43.150917 19.081006 47 25.5 47 C 31.918994 47 37.375922 43.150917 37.919922 37.919922 L 38 36 L 37.990234 35.984375 C 37.996092 35.823299 38 35.66204 38 35.5 C 38 31.700004 34.301091 28.293998 31.621094 26 L 31.599609 26 L 29 24 L 29 21 C 29 20.448001 28.551999 20 28 20 L 27 20 L 27 17 L 27 16 L 27 15 L 29 15 L 30 15 L 33 15 L 34 15 L 38 15 L 39 15 L 43 15 L 44 15 C 44 15 45 15.000001 45 16 L 45 17 L 45 21 L 45 22 L 45 25 L 45 26 L 45 29 L 45 30 L 45 33 L 45 34 C 45 34.551999 45.448001 35 46 35 L 47 35 L 50 35 L 51 35 L 55 35 L 56 35 C 56.551999 35 57 34.551999 57 34 L 57 33 L 57 30 L 57 29 L 57 26 L 57 25 L 57 22 L 57 21 L 57 18 L 57 17 L 57 13 L 57 12 C 57 10.000002 55.499997 7 53 7 L 52 7 L 48 7 L 47 7 L 43 7 L 42 7 L 38 7 L 37 7 L 34 7 L 33 7 L 29 7 L 28.5 7 L 28 7 z M 9 50 L 15 56 L 15 50 L 9 50 z M 37 50 L 37 56 L 43 50 L 37 50 z M 26 52 L 21 57 L 31 57 L 26 52 z " />
<g
   transform="matrix(1,0,0,1,0,-320)"
   id="g31364">
        <g
   id="g31362"
   transform="matrix(1,0,0,1,0,-576)">
            <g
   id="g31348"
   transform="matrix(1,0,0,1,-320,0)">
                <path
   d="M344,906.5C344,905 347,903 348.5,903L373,903C375.5,903 377,906 377,908L377,930L376,931L366,931L365,930L365,912C365,911 364,911 364,911L347,911L347,916L349,920L351.6,922L358,932L357.92,933.92L345.5,942.92L333.08,933.92L333,932L339.4,922L342,920L344,916L344,906.5ZM347,907C347,906 348,906 348,906L372.5,906C372.5,906 374,906 374,908.5L374,927C374,928 373,928 373,928L369,928C368,928 368,927 368,927L368,912C368,908 364,908 364,908L348,908C348,908 347,908 347,907Z"
   style="fill-opacity:1;fill:#1f1f1f"
   id="path31346" />
            </g>
            <g
   id="g31352"
   transform="matrix(1,0,0,1,-320,0)">
                <path
   d="M351,953L346,948L341,953L351,953ZM363,946L357,946L357,952L363,946ZM335,946L329,946L335,952L335,946Z"
   style="fill:rgb(204,204,204);"
   id="path31350" />
            </g>
            <g
   id="g31356"
   transform="matrix(1,0,0,1,-320,0)">
                <path
   d="M351.621,922C354.301,924.294 358,927.7 358,931.5C358,931.664 357.997,931.828 357.991,931.991L352,926L345.5,932L339,926L333.009,931.991C333.003,931.828 333,931.664 333,931.5C333,927.7 336.699,924.294 339.379,922L351.621,922ZM377,929C377,928.448 376.552,928 376,928L375,928C374.448,928 374,928.448 374,929L374,930C374,930.552 374.448,931 375,931L376,931C376.552,931 377,930.552 377,930L377,929ZM372,929C372,928.448 371.552,928 371,928L370,928C369.448,928 369,928.448 369,929L369,930C369,930.552 369.448,931 370,931L371,931C371.552,931 372,930.552 372,930L372,929ZM368,929C368,928.448 367.552,928 367,928L366,928C365.448,928 365,928.448 365,929L365,930C365,930.552 365.448,931 366,931L367,931C367.552,931 368,930.552 368,930L368,929ZM377,925C377,924.448 376.552,924 376,924L375,924C374.448,924 374,924.448 374,925L374,926C374,926.552 374.448,927 375,927L376,927C376.552,927 377,926.552 377,926L377,925ZM368,925C368,924.448 367.552,924 367,924L366,924C365.448,924 365,924.448 365,925L365,926C365,926.552 365.448,927 366,927L367,927C367.552,927 368,926.552 368,926L368,925ZM377,921C377,920.448 376.552,920 376,920L375,920C374.448,920 374,920.448 374,921L374,922C374,922.552 374.448,923 375,923L376,923C376.552,923 377,922.552 377,922L377,921ZM368,921C368,920.448 367.552,920 367,920L366,920C365.448,920 365,920.448 365,921L365,922C365,922.552 365.448,923 366,923L367,923C367.552,923 368,922.552 368,922L368,921ZM344,920L342,920L342,917C342,916.448 342.448,916 343,916L348,916C348.552,916 349,916.448 349,917L349,920L347,920L347,919C347,918.448 346.552,918 346,918L345,918C344.448,918 344,918.448 344,919L344,920ZM377,917C377,916.448 376.552,916 376,916L375,916C374.448,916 374,916.448 374,917L374,918C374,918.552 374.448,919 375,919L376,919C376.552,919 377,918.552 377,918L377,917ZM368,917C368,916.448 367.552,916 367,916L366,916C365.448,916 365,916.448 365,917L365,918C365,918.552 365.448,919 366,919L367,919C367.552,919 368,918.552 368,918L368,917ZM377,913C377,912.448 376.552,912 376,912L375,912C374.448,912 374,912.448 374,913L374,914C374,914.552 374.448,915 375,915L376,915C376.552,915 377,914.552 377,914L377,913ZM347,912C347,911.448 346.552,911 346,911L345,911C344.448,911 344,911.448 344,912L344,913C344,913.552 344.448,914 345,914L346,914C346.552,914 347,913.552 347,913L347,912ZM368,912C368,911.448 367.552,911 367,911L366,911C365.448,911 365,911.448 365,912L365,913C365,913.552 365.448,914 366,914L367,914C367.552,914 368,913.552 368,913L368,912ZM360,909C360,908.448 359.552,908 359,908L358,908C357.448,908 357,908.448 357,909L357,910C357,910.552 357.448,911 358,911L359,911C359.552,911 360,910.552 360,910L360,909ZM355,909C355,908.448 354.552,908 354,908L353,908C352.448,908 352,908.448 352,909L352,910C352,910.552 352.448,911 353,911L354,911C354.552,911 355,910.552 355,910L355,909ZM351,909C351,908.448 350.552,908 350,908L349,908C348.448,908 348,908.448 348,909L348,910C348,910.552 348.448,911 349,911L350,911C350.552,911 351,910.552 351,910L351,909ZM365,909C365,908.448 364.552,908 364,908L363,908C362.448,908 362,908.448 362,909L362,910C362,910.552 362.448,911 363,911L364,911C364.552,911 365,910.552 365,910L365,909ZM377,908C377,907.448 376.552,907 376,907L375,907C374.448,907 374,907.448 374,908L374,909C374,909.552 374.448,910 375,910L376,910C376.552,910 377,909.552 377,909L377,908ZM347,906C347,905.448 346.552,905 346,905L345,905C344.448,905 344,905.448 344,906L344,907C344,907.552 344.448,908 345,908L346,908C346.552,908 347,907.552 347,907L347,906ZM355,904C355,903.448 354.552,903 354,903L353,903C352.448,903 352,903.448 352,904L352,905C352,905.552 352.448,906 353,906L354,906C354.552,906 355,905.552 355,905L355,904ZM359,904C359,903.448 358.552,903 358,903L357,903C356.448,903 356,903.448 356,904L356,905C356,905.552 356.448,906 357,906L358,906C358.552,906 359,905.552 359,905L359,904ZM364,904C364,903.448 363.552,903 363,903L362,903C361.448,903 361,903.448 361,904L361,905C361,905.552 361.448,906 362,906L363,906C363.552,906 364,905.552 364,905L364,904ZM369,904C369,903.448 368.552,903 368,903L367,903C366.448,903 366,903.448 366,904L366,905C366,905.552 366.448,906 367,906L368,906C368.552,906 369,905.552 369,905L369,904ZM374,904C374,903.448 373.552,903 373,903L372,903C371.448,903 371,903.448 371,904L371,905C371,905.552 371.448,906 372,906L373,906C373.552,906 374,905.552 374,905L374,904ZM350,904C350,903.448 349.552,903 349,903L348,903C347.448,903 347,903.448 347,904L347,905C347,905.552 347.448,906 348,906L349,906C349.552,906 350,905.552 350,905L350,904Z"
   style="fill:rgb(136,136,136);"
   id="path31354" />
            </g>
            <g
   id="g31360"
   transform="matrix(1,0,0,1,-320,0)">
                <path
   d="M357.92,933.92C357.376,939.151 351.919,943 345.5,943C339.081,943 333.624,939.151 333.08,933.92L339,928L345.5,934L352,928L357.92,933.92ZM340.5,933C341.88,933 343,934.12 343,935.5C343,936.88 341.88,938 340.5,938C339.12,938 338,936.88 338,935.5C338,934.12 339.12,933 340.5,933Z"
   style="fill:rgb(190,190,190);"
   id="path31358" />
            </g>
        </g>
    </g></svg>
